src/assets/images/bene4.svg

<svg width="40" height="40" viewBox="0 0 40 40" fill="none" xmlns="http://www.w3.org/2000/svg">
<circle cx="19.563" cy="20.0493" r="19.563" fill="url(#paint0_linear_673_3)"/>
<g style="mix-blend-mode:multiply">
<path opacity="0.05" d="M31.0817 27.9787C31.0817 29.2368 21.055 29.6255 14.3706 29.2087C10.3789 28.953 9.03125 28.4415 9.03125 27.9787C9.03125 27.5158 10.3917 26.9967 14.3706 26.7487C21.055 26.3293 31.0817 26.7205 31.0817 27.9787Z" fill="#FCFCFC"/>
<path opacity="0.1" d="M30.643 27.9814C30.643 29.1808 21.0639 29.5567 14.6454 29.1577C10.7866 28.9174 9.44922 28.4289 9.44922 27.9814C9.44922 27.5339 10.7866 27.0378 14.6454 26.8026C21.0639 26.4037 30.643 26.7796 30.643 27.9814Z" fill="#FAFAFA"/>
<path opacity="0.14" d="M30.2114 27.9792C30.2114 29.1223 21.0798 29.4803 14.9298 29.1044C11.2014 28.8819 9.86914 28.4037 9.86914 27.9792C9.86914 27.5547 11.1938 27.074 14.9221 26.8515C21.0798 26.4756 30.2114 26.8336 30.2114 27.9792Z" fill="#F7F7F7"/>
<path opacity="0.19" d="M29.7943 27.9817C29.7943 29.0659 21.1 29.4111 15.2185 29.0557C11.6257 28.846 10.3164 28.4061 10.3164 27.9817C10.3164 27.5572 11.6257 27.1276 15.2236 26.9051C21.1076 26.5496 29.7943 26.8949 29.7943 27.9817Z" fill="#F4F5F5"/>
<path opacity="0.24" d="M29.3576 27.9797C29.3576 29.0025 21.1159 29.3375 15.5003 29.0025C12.0354 28.8031 10.7363 28.3735 10.7363 27.9797C10.7363 27.5859 12.0354 27.1537 15.5003 26.9568C21.1235 26.6142 29.3576 26.9491 29.3576 27.9797Z" fill="#F2F2F2"/>
<path opacity="0.29" d="M28.9437 27.979C28.9437 28.9482 21.1495 29.2576 15.7999 28.9507C12.4756 28.764 11.1816 28.3549 11.1816 27.979C11.1816 27.6031 12.4602 27.1914 15.7999 27.0047C21.1392 26.6927 28.9437 27.0073 28.9437 27.979Z" fill="#EFEFF0"/>
<path opacity="0.38" d="M28.082 27.9858C28.082 28.8425 21.1776 29.1263 16.3625 28.8552C13.2939 28.6941 12.0332 28.3259 12.0332 27.9858C12.0332 27.6457 13.2939 27.2775 16.3625 27.1164C21.1802 26.8428 28.082 27.1317 28.082 27.9858Z" fill="#E9EAEB"/>
<path opacity="0.43" d="M27.6505 27.9811C27.6505 28.779 21.1962 29.0398 16.6547 28.7994C13.7165 28.6434 12.4609 28.3033 12.4609 27.9811C12.4609 27.6589 13.7088 27.3111 16.6445 27.1628C21.1962 26.9122 27.6505 27.1807 27.6505 27.9811Z" fill="#E7E7E8"/>
<path opacity="0.48" d="M27.2196 27.9768C27.2196 28.7184 21.2103 28.9614 16.927 28.744C14.1142 28.6008 12.8867 28.2837 12.8867 27.9768C12.8867 27.67 14.1218 27.3452 16.927 27.2097C21.2103 26.9795 27.2196 27.2353 27.2196 27.9768Z" fill="#E4E5E6"/>
</g>
<path d="M21.0789 10.8578C21.0789 10.5865 20.9712 10.3264 20.7793 10.1346C20.5875 9.94273 20.3274 9.83496 20.0561 9.83496C19.7848 9.83496 19.5246 9.94273 19.3328 10.1346C19.141 10.3264 19.0332 10.5865 19.0332 10.8578V14.9493H21.0789V10.8578Z" fill="white"/>
<path d="M20.0432 27.1933C19.2101 27.1933 18.3981 26.9307 17.7229 26.4427C17.0477 25.9547 16.5435 25.2662 16.2821 24.4751C16.0207 23.6841 16.0153 22.8308 16.2668 22.0365C16.5183 21.2423 17.0138 20.5475 17.6829 20.0511V10.8198C17.7112 10.2135 17.9719 9.64133 18.411 9.22225C18.85 8.80317 19.4336 8.56934 20.0406 8.56934C20.6476 8.56934 21.2312 8.80317 21.6703 9.22225C22.1093 9.64133 22.3701 10.2135 22.3983 10.8198V20.0511C23.0674 20.5475 23.5629 21.2423 23.8144 22.0365C24.0659 22.8308 24.0606 23.6841 23.7991 24.4751C23.5377 25.2662 23.0336 25.9547 22.3583 26.4427C21.6831 26.9307 20.8712 27.1933 20.0381 27.1933H20.0432ZM20.0432 26.5284C20.7645 26.529 21.4662 26.2929 22.0404 25.8563C22.6147 25.4198 23.0299 24.8069 23.2224 24.1116C23.4148 23.4164 23.3739 22.6773 23.1059 22.0076C22.8379 21.3378 22.3575 20.7745 21.7386 20.404V10.8198C21.7386 10.3701 21.56 9.93888 21.242 9.62093C20.9241 9.30298 20.4928 9.12436 20.0432 9.12436C19.5935 9.12436 19.1623 9.30298 18.8443 9.62093C18.5264 9.93888 18.3478 10.3701 18.3478 10.8198V20.404C17.7288 20.7745 17.2485 21.3378 16.9805 22.0076C16.7124 22.6773 16.6715 23.4164 16.864 24.1116C17.0564 24.8069 17.4716 25.4198 18.0459 25.8563C18.6202 26.2929 19.3218 26.529 20.0432 26.5284Z" fill="white"/>
<path d="M21.0741 20.8133V14.96H19.0284V20.8133C18.4689 21.0494 18.0082 21.4717 17.7246 22.0087C17.4409 22.5457 17.3518 23.1643 17.4722 23.7595C17.5926 24.3547 17.9152 24.89 18.3853 25.2745C18.8554 25.659 19.444 25.869 20.0512 25.869C20.6585 25.869 21.2471 25.659 21.7172 25.2745C22.1873 24.89 22.5099 24.3547 22.6303 23.7595C22.7507 23.1643 22.6616 22.5457 22.3779 22.0087C22.0943 21.4717 21.6336 21.0494 21.0741 20.8133Z" fill="#F1F1F1" fill-opacity="0.94"/>
<path d="M19.2755 23.0347C19.2755 23.518 19.0198 23.9093 18.6771 23.9093C18.3344 23.9093 18.0762 23.5257 18.0762 23.0347C18.0762 22.5437 18.3319 22.1602 18.6771 22.1602C19.0223 22.1602 19.2755 22.5591 19.2755 23.0347Z" fill="white"/>
<path d="M21.7407 18.9307H20.2422V19.3884H21.7407V18.9307Z" fill="white"/>
<path d="M21.744 17.6055H21.0996V18.0632H21.744V17.6055Z" fill="white"/>
<path d="M21.7407 16.2812H20.2422V16.739H21.7407V16.2812Z" fill="white"/>
<path d="M21.744 14.96H21.0996V15.4177H21.744V14.96Z" fill="white"/>
<path d="M21.7407 13.6348H20.2422V14.0925H21.7407V13.6348Z" fill="white"/>
<path d="M21.744 12.3105H21.0996V12.7683H21.744V12.3105Z" fill="white"/>
<path d="M21.7407 10.9854H20.2422V11.4431H21.7407V10.9854Z" fill="white"/>
<path d="M19.6469 11.1387C19.645 11.1062 19.6307 11.0756 19.6069 11.0533C19.5831 11.0309 19.5517 11.0185 19.5191 11.0186C19.4862 11.0185 19.4545 11.0308 19.4303 11.0531C19.4061 11.0754 19.3913 11.106 19.3887 11.1387V20.7332L19.6444 20.6795V11.1387H19.6469Z" fill="white"/>
<defs>
<linearGradient id="paint0_linear_673_3" x1="19.563" y1="0.486328" x2="19.563" y2="39.6124" gradientUnits="userSpaceOnUse">
<stop stop-color="#F4815A"/>
<stop offset="1" stop-color="#F25E53"/>
</linearGradient>
</defs>
</svg>

<svg xmlns="http://www.w3.org/2000/svg" width="40" height="40" fill="none"><circle cx="19.563" cy="20.049" r="19.563" fill="url(#a)"/><g style="mix-blend-mode:multiply"><path fill="#FCFCFC" d="M31.082 27.979c0 1.258-10.027 1.646-16.711 1.23-3.992-.256-5.34-.767-5.34-1.23s1.36-.982 5.34-1.23c6.684-.42 16.71-.028 16.71 1.23" opacity=".05"/><path fill="#FAFAFA" d="M30.643 27.981c0 1.2-9.58 1.576-15.998 1.177-3.858-.24-5.196-.73-5.196-1.177s1.338-.943 5.196-1.178c6.419-.4 15.998-.023 15.998 1.178" opacity=".1"/><path fill="#F7F7F7" d="M30.211 27.98c0 1.142-9.131 1.5-15.281 1.124-3.729-.222-5.06-.7-5.06-1.125 0-.424 1.324-.905 5.052-1.127 6.158-.376 15.29-.018 15.29 1.127" opacity=".14"/><path fill="#F4F5F5" d="M29.794 27.982c0 1.084-8.694 1.43-14.575 1.074-3.593-.21-4.903-.65-4.903-1.074s1.31-.854 4.908-1.077c5.884-.355 14.57-.01 14.57 1.077" opacity=".19"/><path fill="#F2F2F2" d="M29.358 27.98c0 1.023-8.242 1.357-13.858 1.023-3.465-.2-4.764-.63-4.764-1.023 0-.394 1.3-.826 4.764-1.023 5.624-.343 13.858-.008 13.858 1.023" opacity=".24"/><path fill="#EFEFF0" d="M28.944 27.979c0 .97-7.794 1.279-13.144.972-3.324-.187-4.618-.596-4.618-.972s1.278-.788 4.618-.974c5.34-.312 13.144.002 13.144.974" opacity=".29"/><path fill="#E9EAEB" d="M28.082 27.986c0 .857-6.904 1.14-11.72.87-3.068-.162-4.329-.53-4.329-.87s1.26-.709 4.33-.87c4.817-.273 11.719.016 11.719.87" opacity=".38"/><path fill="#E7E7E8" d="M27.65 27.981c0 .798-6.454 1.059-10.995.818-2.939-.156-4.194-.496-4.194-.818s1.248-.67 4.184-.818c4.551-.25 11.006.018 11.006.818" opacity=".43"/><path fill="#E4E5E6" d="M27.22 27.977c0 .741-6.01.984-10.293.767-2.813-.143-4.04-.46-4.04-.767s1.235-.632 4.04-.767c4.283-.23 10.293.025 10.293.767" opacity=".48"/></g><path fill="#fff" d="M21.079 10.858a1.022 1.022 0 1 0-2.046 0v4.091h2.046z"/><path fill="#fff" d="M20.043 27.193a3.961 3.961 0 0 1-2.36-7.142V10.82a2.36 2.36 0 0 1 4.715 0v9.231a3.961 3.961 0 0 1-2.36 7.142zm0-.665a3.295 3.295 0 0 0 1.696-6.124V10.82a1.695 1.695 0 1 0-3.391 0v9.584a3.296 3.296 0 0 0 1.695 6.124"/><path fill="#F1F1F1" fill-opacity=".94" d="M21.074 20.813V14.96h-2.046v5.853a2.631 2.631 0 1 0 2.046 0"/><path fill="#fff" d="M19.276 23.035c0 .483-.256.874-.599.874s-.6-.383-.6-.874.255-.875.6-.875.599.4.599.875m2.464-4.105h-1.498v.458h1.499zm.004-1.324H21.1v.457h.644zm-.004-1.325h-1.498v.458h1.499zm.004-1.321H21.1v.458h.644zm-.004-1.325h-1.498v.457h1.499zm.004-1.325H21.1v.458h.644zm-.004-1.325h-1.498v.458h1.499zm-2.093.154a.127.127 0 0 0-.128-.12.13.13 0 0 0-.13.12v9.594l.255-.053v-9.541z"/><defs><linearGradient id="a" x1="19.563" x2="19.563" y1=".486" y2="39.612" gradientUnits="userSpaceOnUse"><stop stop-color="#F4815A"/><stop offset="1" stop-color="#F25E53"/></linearGradient></defs></svg>
